X: 313
T: Sir Charles Sedley's Minuet
B: C. & S. Thompson, "The Compleat Tutor for the Fife" c.1760 p.31 #3
S: http://imslp.org/wiki/The_Compleat_Tutor_for_the_Fife_(Anonymous)
Z: 2014 John Chambers <jc:trillian.mit.edu>
M: 3/4
L: 1/8
K: D
% - - - - - - - - - - - - - - - - - - - - - - - - -
|:\
d2fdec | d2e2f2 | A2BcdB | A2G2F2 |\
D3FEG | F2DFEG | F2GFED | A6 :|
|:\
AFDFA=c | {c}B2ABG2 | B^GEGBd | {d}c2BcA2 |\
ecAceg | fdecd2 | A>gf2Te2 | d6 :|
% - - - - - - - - - - - - - - - - - - - - - - - - -
